X:33
T:Duncan MacKay
M:C|
L:1/8
K:C
F   |(E/F/G) c2 (E/F/G) c2|TB>AGE D/D/D D2|(E/F/G) cA BGcG |(E/F/G) DE C2C:|
e/f/|gece        gaTge    | faTge defd    | gece      gaTge| fdge      cdef|
     gece        gaTge    | faTge d2dc    | AcGc      FcEc | FDcE      C2C|]
% This last Strain is play'd but once over at a time.

% @@@@@@@@@@@@@@@@@@@@@@@@@@@@@@@@@@

%% 34. ===============================================================================

% @CASTLE@
% &Grant.&
%
% *FIRST Couple turn other by both hands, and cast off.  Lead down thro' the 3d Couple,
% and cast up.  *First Couple go three hands round with the 2d Woman.  Then three hands
% round with the 2d Man.  *FIRST Couple go the figure of 8 thro' the 3d Couple.  Then
% sett to other, and turn.  *Lead up thro' 2d Couple, & cast off.  Right and Left.

% @@@@@@@@@@@@@@@@@@@@@@@@@@@@@@@@@@

